icon-themes/breeze_svg/cmd/lc_closedoc.svg

<svg viewBox="0 0 24 24" xmlns="http://www.w3.org/2000/svg"><path d="m5 4v16h1 7v-1h-7v-14h8v3 1h4v5h1v-4.59375-1.40625l-4-4h-1-8zm9.990234 11.009766-.990234.990234 1.503906 1.503906-1.503906 1.50586.990234.990234 1.50586-1.503906 1.503906 1.503906.990234-.990234-1.505859-1.50586 1.505859-1.503906-.990234-.990234-1.503906 1.505859z" fill="#da4453"/></svg>

<svg xmlns="http://www.w3.org/2000/svg" viewBox="0 0 24 24">
  <path
     style="fill:#da4453"
     d="M 5 4 L 5 20 L 6 20 L 13 20 L 13 19 L 6 19 L 6 5 L 14 5 L 14 8 L 14 9 L 18 9 L 18 14 L 19 14 L 19 9.40625 L 19 8 L 15 4 L 14 4 L 6 4 L 5 4 z M 14.990234 15.009766 L 14 16 L 15.503906 17.503906 L 14 19.009766 L 14.990234 20 L 16.496094 18.496094 L 18 20 L 18.990234 19.009766 L 17.484375 17.503906 L 18.990234 16 L 18 15.009766 L 16.496094 16.515625 L 14.990234 15.009766 z "
     />
</svg>
